static/svg/icons/icon-telegram.svg

<?xml version="1.0" encoding="UTF-8"?>
<svg width="20px" height="17px" viewBox="0 0 20 17" version="1.1" xmlns="http://www.w3.org/2000/svg" xmlns:xlink="http://www.w3.org/1999/xlink">
    <!-- Generator: Sketch 57.1 (83088) - https://sketch.com -->
    <title>icon-telegram</title>
    <desc>Created with Sketch.</desc>
    <g id="Website-CakeDefi.com" stroke="none" stroke-width="1" fill="none" fill-rule="evenodd">
        <g id="Cake-website-HD" transform="translate(-1121.000000, -556.000000)">
            <g id="shortcuts" transform="translate(853.000000, 144.000000)">
                <g id="Group-5" transform="translate(234.000000, 240.000000)">
                    <g id="icon-telegram" transform="translate(32.000000, 168.000000)">
                        <rect id="Rectangle" x="0" y="0" width="24" height="24"></rect>
                        <path d="M12.6502862,17.1971206 C12.6732994,17.2139969 12.6855731,17.2232022 12.699381,17.2324075 C14.1507453,18.3094241 15.6036438,19.3849065 17.0519396,20.4649916 C17.257524,20.6168785 17.4799847,20.7273418 17.7254586,20.7917787 C18.1795852,20.9145156 18.5048381,20.7641628 18.7196278,20.345323 C18.7411067,20.3023651 18.7579831,20.2609414 18.7763936,20.2179835 C18.8761174,19.9817149 18.9190753,19.7301041 18.9712385,19.4815619 C19.3072308,17.9074606 19.641689,16.3318252 19.9746129,14.7561898 C20.3090711,13.1820886 20.6450635,11.6064531 20.9795216,10.0323519 C21.2955692,8.54416656 21.6116168,7.05751541 21.9291987,5.57086426 C21.9890329,5.29317194 22.0289224,5.01701383 21.9736908,4.73471888 C21.8647618,4.18853951 21.4014298,3.89397086 20.8644557,4.03511834 C20.583695,4.1087605 20.3182764,4.22996323 20.0467209,4.33428962 C17.1639371,5.4450589 14.2811533,6.55736239 11.3999037,7.66966588 C8.9129465,8.6285482 6.42598931,9.58589631 3.94210055,10.5478471 C3.48337125,10.7242814 3.01697089,10.880771 2.57511792,11.0970948 C2.3756704,11.1937502 2.19616763,11.3134187 2.08110175,11.5128662 C1.93381742,11.7736822 1.98751483,11.9961429 2.23912555,12.1603036 C2.39101251,12.2600273 2.56744686,12.2953142 2.73774436,12.3474774 C4.03261904,12.7417698 5.32749373,13.1375964 6.6208342,13.533423 C6.84176069,13.6009284 7.06115296,13.6684337 7.27440839,13.7344048 C7.30048999,13.7175285 7.3142979,13.7113916 7.3281058,13.7021863 C10.5576215,11.6678216 13.7871371,9.6365253 17.0166528,7.60369478 C17.3096872,7.41805516 17.6027216,7.23088133 17.8957561,7.04524172 C18.039972,6.95472323 18.1918589,6.89488897 18.3652249,6.92710742 C18.518646,6.9516548 18.5600697,7.05137856 18.4634144,7.1741155 C18.4127854,7.23855239 18.3514169,7.29531823 18.2900485,7.35054985 C15.7156412,9.70403061 13.1396998,12.0559772 10.5652925,14.4109921 C10.3244213,14.6288502 10.0850842,14.8482425 9.85188407,15.0614979 C9.72914713,16.6355991 9.6079444,18.1989609 9.48520747,19.7684594 C9.52049434,19.7684594 9.54657594,19.7699937 9.57112332,19.7684594 C9.59720492,19.7669252 9.62328652,19.7638568 9.64936812,19.75772 C9.97768943,19.6871462 10.2492449,19.5091777 10.4855135,19.2851828 C11.0040771,18.7957692 11.5119011,18.2971504 12.0243278,17.8031342 C12.2314464,17.6021525 12.438565,17.402705 12.6502862,17.1971206" id="Path" fill="#5B10FF"></path>
                    </g>
                </g>
            </g>
        </g>
    </g>
</svg>

<svg width="20" height="17" xmlns="http://www.w3.org/2000/svg"><g transform="translate(-2 -4)" fill="none" fill-rule="evenodd"><path d="M0 0H24V24H0z"/><path d="M12.65 17.197l.05.035c1.45 1.077 2.904 2.153 4.352 3.233.206.152.428.262.673.327.455.123.78-.028.995-.447.021-.043.038-.084.056-.127.1-.236.143-.488.195-.736.336-1.575.67-3.15 1.004-4.726l1.005-4.724c.316-1.488.632-2.974.95-4.461.059-.278.099-.554.044-.836-.11-.546-.573-.841-1.11-.7-.28.074-.546.195-.817.3-2.883 1.11-5.766 2.222-8.647 3.335-2.487.959-4.974 1.916-7.458 2.878-.459.176-.925.333-1.367.55-.2.096-.379.215-.494.415-.147.26-.093.483.158.647.152.1.328.135.499.187a2868.788 2868.788 0 0 1 4.536 1.387l.054-.032 9.689-6.098.879-.559c.144-.09.296-.15.47-.118.153.025.194.124.097.247-.05.065-.112.121-.173.177-2.574 2.353-5.15 4.705-7.725 7.06l-.713.65-.367 4.707c.035 0 .062.002.086 0a.457.457 0 0 0 .078-.01c.329-.07.6-.249.837-.473.518-.49 1.026-.988 1.538-1.482.207-.2.415-.4.626-.606" fill="#5B10FF"/></g></svg>
